assets/icons/qvision/battery_charging_full.svg

<svg xmlns="http://www.w3.org/2000/svg" height="24" viewBox="0 0 24 24" width="24"><path d="M0 0h24v24H0z" fill="none"/><path d="M15.67 4H14V2h-4v2H8.33C7.6 4 7 4.6 7 5.33v15.33C7 21.4 7.6 22 8.33 22h7.33c.74 0 1.34-.6 1.34-1.33V5.33C17 4.6 16.4 4 15.67 4zM11 20v-5.5H9L13 7v5.5h2L11 20z"/></svg>

<svg width="24" height="24" viewBox="0 0 24 24" fill="none" xmlns="http://www.w3.org/2000/svg">
<g clip-path="url(#clip0_147_2340)">
<path d="M15.67 4H14V2H10V4H8.33C7.6 4 7 4.6 7 5.33V20.66C7 21.4 7.6 22 8.33 22H15.66C16.4 22 17 21.4 17 20.67V5.33C17 4.6 16.4 4 15.67 4ZM11 20V14.5H9L13 7V12.5H15L11 20Z" fill="#323232"/>
</g>
<defs>
<clipPath id="clip0_147_2340">
<rect width="24" height="24" fill="white"/>
</clipPath>
</defs>
</svg>
